svgs/sharp-solid/sd-cards.svg

<svg xmlns="http://www.w3.org/2000/svg" viewBox="0 0 448 512"><!--! Font Awesome Pro 6.6.0 by @fontawesome - https://fontawesome.com License - https://fontawesome.com/license (Commercial License) Copyright 2024 Fonticons, Inc. --><path d="M416 0L224 0 210.7 0l-9.4 9.4-96 96L96 114.7 96 128l0 256 0 32 32 0 288 0 32 0 0-32 0-352 0-32L416 0zM304 64l0 24 0 48 0 24-48 0 0-24 0-48 0-24 48 0zm80 0l0 24 0 48 0 24-48 0 0-24 0-48 0-24 48 0zM48 120l0-24L0 96l0 24L0 488l0 24 24 0 336 0 24 0 0-48-24 0L48 464l0-344z"/></svg>

<svg xmlns="http://www.w3.org/2000/svg" viewBox="0 0 448 512"><!--! Font Awesome Pro 6.4.0 by @fontawesome - https://fontawesome.com License - https://fontawesome.com/license (Commercial License) Copyright 2023 Fonticons, Inc. --><path d="M416 0H224 210.7l-9.4 9.4-96 96L96 114.7V128 384v32h32H416h32V384 32 0H416zM304 64V88v48 24H256V136 88 64h48zm80 0V88v48 24H336V136 88 64h48zM48 120V96H0v24V488v24H24 360h24V464H360 48V120z"/></svg>
